X:8468
T:Kenlock of Kenlock. GS.064
T:Kinloch of Kinloch,aka. GS.064
T:Blow the Wind Southerly,aka. GS.064
M:6/8
L:1/8
Q:45
S:George Spencer m/s, Leeds,1831
R:Air
O:England
A:Leeds
N:1 This note is dotted and shouldn't b
H:1831
Z:vmp.Cherri Graebe
K:D major
f>ed AFA | BGB AFA | f>ed AFA | Bdc  "cr" d3 :||: f2f e2e | ded cBA |! f
2
f e2e | ca^g a3 |
"1" b2b "1"a2a | gfg f3 | fed Bgb | a2c "cr"d3 :|| 


